X:2
T:Polka
O:France
M:4/4
L:1/4
Q:1/4=250
K:F
|CFED|CAA G/2A/2|BGG F/2G/2|1ABc2:|2AGF2|
|:cAA G/2A/2|cAA G/2A/2|BAG F/2G/2|1AB c2:|2AGF2||
